svg/24/elements--filled.svg

<svg width="24" height="24" viewBox="0 0 24 24" fill="currentColor" xmlns="http://www.w3.org/2000/svg"><path d="M22 6C22 4.89543 21.1046 4 20 4H10C8.89543 4 8 4.89543 8 6V12C8 13.1046 8.89543 14 10 14H20C21.1046 14 22 13.1046 22 12V6Z"/><path fill-rule="evenodd" clip-rule="evenodd" d="M5.75 7C5.33579 7 5 7.33579 5 7.75V15C5 16.1046 5.89543 17 7 17H18.25C18.6642 17 19 16.6642 19 16.25C19 15.8358 18.6642 15.5 18.25 15.5H7C6.72386 15.5 6.5 15.2761 6.5 15V7.75C6.5 7.33579 6.16421 7 5.75 7Z"/><path fill-rule="evenodd" clip-rule="evenodd" d="M2.75 10C2.33579 10 2 10.3358 2 10.75V18C2 19.1046 2.89543 20 4 20H15.25C15.6642 20 16 19.6642 16 19.25C16 18.8358 15.6642 18.5 15.25 18.5H4C3.72386 18.5 3.5 18.2761 3.5 18V10.75C3.5 10.3358 3.16421 10 2.75 10Z"/></svg>

<svg xmlns="http://www.w3.org/2000/svg" width="24" height="24" fill="currentColor" viewBox="0 0 24 24">
  <path d="M22 6a2 2 0 0 0-2-2H10a2 2 0 0 0-2 2v6a2 2 0 0 0 2 2h10a2 2 0 0 0 2-2V6Z"/>
  <path fill-rule="evenodd" d="M5.75 7a.75.75 0 0 0-.75.75V15a2 2 0 0 0 2 2h11.25a.75.75 0 0 0 0-1.5H7a.5.5 0 0 1-.5-.5V7.75A.75.75 0 0 0 5.75 7Z" clip-rule="evenodd"/>
  <path fill-rule="evenodd" d="M2.75 10a.75.75 0 0 0-.75.75V18a2 2 0 0 0 2 2h11.25a.75.75 0 0 0 0-1.5H4a.5.5 0 0 1-.5-.5v-7.25a.75.75 0 0 0-.75-.75Z" clip-rule="evenodd"/>
</svg>
